svgs/thin/masks-theater.svg

<svg xmlns="http://www.w3.org/2000/svg" viewBox="0 0 640 512"><!--! Font Awesome Pro 6.0.0-alpha3 by @fontawesome - https://fontawesome.com License - https://fontawesome.com/license (Commercial License) --><path d="M224.8 431.2c-64.09-6.906-164.1-60.85-177.2-129.6L16.88 128.5C12.72 104.7 23.66 81.14 44.13 69.9c84.06-46.44 182.7-63.71 277.9-48.61c11.72 1.844 22.34 7.438 30.75 16.14c3.062 3.219 8.125 3.266 11.31 .2187c3.156-3.078 3.25-8.141 .1875-11.31c-10.84-11.25-24.56-18.46-39.75-20.86C225.9-10.09 123.6 7.758 36.41 55.89C9.939 70.4-4.248 100.7 1.127 131.3l30.78 173c13.69 77.14 120.6 135.1 191.2 142.8C223.4 447.1 223.7 447.1 224 447.1c4.031 0 7.5-3.047 7.969-7.141C232.4 435.6 229.3 431.6 224.8 431.2zM326.6 217.6c4.5 .9219 8.5-2.156 9.25-6.5c1.531-8.781 6.375-16.39 13.56-21.42c7-4.893 15.41-6.783 23.88-5.236c17.56 3.172 29.31 20.27 26.19 38.11c-.7813 4.344 2.156 8.484 6.499 9.25c.4694 .0938 .9381 .125 1.376 .125c3.812 0 7.188-2.734 7.875-6.625c4.656-26.47-12.88-51.86-39.06-56.61c-12.72-2.25-25.38 .5156-35.88 7.859c-10.75 7.484-17.91 18.78-20.19 31.8C319.3 212.7 322.3 216.8 326.6 217.6zM152.2 191.1C178.4 186.4 195.9 161 191.3 134.5C190.5 130.2 186.4 127.1 182 128C177.7 128.8 174.7 132.9 175.5 137.3c3.125 17.85-8.625 34.94-26.19 38.11C140.9 176.9 132.4 175 125.4 170.2C118.3 165.1 113.4 157.5 111.9 148.7C111.1 144.4 107.1 141.2 102.6 142.2C98.28 142.1 95.35 147.1 96.13 151.5C98.41 164.5 105.6 175.8 116.3 183.3c8.125 5.674 17.59 8.627 27.28 8.627C146.4 191.9 149.3 191.7 152.2 191.1zM144 319.9c2.312 0 4.594-.9844 6.156-2.906C160.4 304.7 176.2 294.2 194.7 287.4c4.156-1.5 6.312-6.094 4.812-10.25c-1.5-4.141-6.219-6.281-10.25-4.781C168.1 280.1 149.8 292.3 137.8 306.8C135 310.2 135.5 315.3 138.9 318.1C140.4 319.3 142.2 319.9 144 319.9zM515.9 333.4c-27.44 16.47-65.44 22.02-104.4 15.22c-38.94-6.828-72.81-24.97-92.91-49.77C316.5 296.3 313.1 295.2 309.1 296.3C306.9 297.2 304.7 299.1 304.4 303.2c-4.812 57.49 35.59 108.6 94.03 118.9c6.906 1.203 13.75 1.781 20.5 1.781c50.53 0 95.37-32.47 108.8-81.54c.875-3.156-.2813-6.516-2.875-8.484C522.2 331.9 518.7 331.7 515.9 333.4zM401.2 406.4c-43.44-7.688-75.31-41.47-80.44-82.28c22.5 19.91 53.53 34.25 88 40.28c34.41 6.08 68.44 3.111 96.44-7.938C486.2 393.1 444.4 413.1 401.2 406.4zM603.6 119.9c-87.19-48.14-189.5-65.91-288.2-50.36C285.5 74.28 261.8 97.89 256.3 128.4L225.5 301.4c-7.594 42.83 14.06 84.99 33.59 112.8c34.44 49.08 87.63 89.6 126.5 96.33C391 511.5 396.7 512 402.8 512c72.19 0 190.1-63.29 205.2-143.7l30.78-173.1C644.2 164.7 630.1 134.4 603.6 119.9zM623.1 192.5l-30.78 173.1c-14.16 79.72-148.8 138.9-203.1 129.3c-34.53-5.984-84.44-44.58-116.2-89.77c-25.12-35.84-36.13-71.66-30.94-100.8l30.78-173c4.25-23.8 22.69-42.24 45.88-45.91c22.44-3.562 45.06-5.312 67.66-5.312c73.22 0 146 18.45 210.3 53.92C616.3 145.1 627.3 168.7 623.1 192.5zM504.2 192.7c-12.72-2.297-25.38 .5313-35.88 7.859c-10.75 7.484-17.9 18.78-20.19 31.8c-.7813 4.346 2.156 8.486 6.5 9.252c4.592 .9062 8.467-2.156 9.248-6.5c1.531-8.783 6.375-16.39 13.56-21.42c7.031-4.859 15.41-6.781 23.88-5.234c17.56 3.172 29.31 20.27 26.19 38.11c-.7813 4.344 2.156 8.484 6.5 9.25c.4687 .0938 .9375 .125 1.375 .125c3.812 0 7.188-2.734 7.875-6.625C547.9 222.8 530.4 197.4 504.2 192.7z"/></svg>

<svg xmlns="http://www.w3.org/2000/svg" viewBox="0 0 640 512"><!-- Font Awesome Pro 6.0.0-alpha2 by @fontawesome - https://fontawesome.com License - https://fontawesome.com/license (Commercial License) --><path d="M224.844 431.168C160.752 424.262 59.846 370.322 47.659 301.521L16.877 128.514C12.721 104.686 23.659 81.137 44.127 69.902C128.19 23.463 226.875 6.195 322.063 21.291C333.782 23.135 344.407 28.729 352.813 37.432C355.875 40.65 360.938 40.697 364.125 37.65C367.282 34.572 367.375 29.51 364.313 26.338C353.469 15.088 339.75 7.883 324.563 5.477C225.875 -10.086 123.565 7.758 36.409 55.887C9.94 70.402 -4.248 100.701 1.127 131.295L31.909 304.318C45.596 381.463 152.502 439.465 223.157 447.074C223.438 447.105 223.719 447.121 224 447.121C228.032 447.121 231.5 444.074 231.969 439.98C232.438 435.59 229.25 431.637 224.844 431.168ZM326.625 217.58C331.125 218.502 335.125 215.424 335.875 211.08C337.407 202.299 342.25 194.689 349.438 189.658C356.438 184.766 364.844 182.875 373.313 184.422C390.875 187.594 402.625 204.689 399.5 222.533C398.719 226.877 401.657 231.018 406 231.783C406.469 231.877 406.938 231.908 407.375 231.908C411.188 231.908 414.563 229.174 415.25 225.283C419.907 198.814 402.375 173.422 376.188 168.672C363.469 166.422 350.813 169.187 340.313 176.531C329.563 184.016 322.407 195.314 320.125 208.33C319.344 212.674 322.282 216.814 326.625 217.58ZM152.19 191.143C178.377 186.391 195.907 161 191.25 134.529C190.469 130.186 186.438 127.092 182.002 128.029C177.659 128.795 174.721 132.936 175.502 137.279C178.627 155.125 166.877 172.219 149.315 175.391C140.94 176.891 132.44 175.031 125.44 170.156C118.252 165.125 113.409 157.516 111.877 148.734C111.096 144.391 107.065 141.201 102.627 142.232C98.284 142.998 95.346 147.141 96.127 151.484C98.409 164.5 105.565 175.797 116.315 183.281C124.44 188.955 133.909 191.908 143.596 191.908C146.44 191.908 149.315 191.658 152.19 191.143ZM144.002 319.912C146.315 319.912 148.596 318.928 150.159 317.006C160.377 304.662 176.221 294.162 194.719 287.428C198.875 285.928 201.032 281.334 199.532 277.176C198.032 273.035 193.313 270.895 189.282 272.395C168.096 280.084 149.846 292.303 137.846 306.818C135.034 310.209 135.502 315.256 138.909 318.068C140.409 319.303 142.19 319.912 144.002 319.912ZM515.873 333.43C488.436 349.898 450.438 355.445 411.469 348.648C372.532 341.82 338.657 323.68 318.563 298.881C316.5 296.35 313.125 295.225 310 296.271C306.875 297.225 304.657 299.99 304.375 303.24C299.563 360.727 339.969 411.84 398.407 422.152C405.313 423.355 412.157 423.934 418.907 423.934C469.436 423.934 514.28 391.463 527.717 342.398C528.592 339.242 527.436 335.883 524.842 333.914C522.155 331.914 518.655 331.727 515.873 333.43ZM401.157 406.4C357.719 398.713 325.844 364.93 320.719 324.117C343.219 344.023 374.25 358.367 408.719 364.398C443.125 370.479 477.155 367.51 505.155 356.461C486.248 393.072 444.407 413.98 401.157 406.4ZM603.623 119.904C516.436 71.762 414.157 53.932 315.438 69.48C285.532 74.215 261.75 97.887 256.313 128.389L225.532 301.428C217.938 344.258 239.594 386.416 259.125 414.262C293.563 463.342 346.75 503.859 385.625 510.594C391 511.547 396.782 512 402.938 512C475.123 512 593.811 448.715 608.092 368.338L638.873 195.268C644.248 164.703 630.061 134.42 603.623 119.904ZM623.123 192.486L592.342 365.539C578.186 445.262 443.563 504.484 388.375 494.842C353.844 488.857 303.938 450.262 272.219 405.072C247.094 369.229 236.094 333.414 241.282 304.225L272.063 131.201C276.313 107.404 294.75 88.965 317.938 85.293C340.375 81.73 363 79.98 385.594 79.98C458.811 79.98 531.623 98.434 595.873 133.904L595.905 133.92C616.342 145.141 627.28 168.688 623.123 192.486ZM504.186 192.674C491.467 190.377 478.811 193.205 468.311 200.533C457.561 208.018 450.407 219.314 448.125 232.33C447.344 236.676 450.282 240.816 454.625 241.582C459.217 242.488 463.092 239.426 463.873 235.082C465.405 226.299 470.248 218.689 477.436 213.658C484.467 208.799 492.842 206.877 501.311 208.424C518.873 211.596 530.623 228.689 527.498 246.535C526.717 250.879 529.655 255.02 533.998 255.785C534.467 255.879 534.936 255.91 535.373 255.91C539.186 255.91 542.561 253.176 543.248 249.285C547.905 222.814 530.373 197.424 504.186 192.674Z"/></svg>
